svgs/sharp-solid/filter-list.svg

<svg xmlns="http://www.w3.org/2000/svg" viewBox="0 0 512 512"><!--! Font Awesome Pro 6.6.0 by @fontawesome - https://fontawesome.com License - https://fontawesome.com/license (Commercial License) Copyright 2024 Fonticons, Inc. --><path d="M112 256l0 128 128 96 0-224L352 128l0-64L0 64l0 64L112 256zM352 384l-32 0 0 64 32 0 128 0 32 0 0-64-32 0-128 0zM320 224l0 64 32 0 128 0 32 0 0-64-32 0-128 0-32 0zM416 64l-32 0 0 64 32 0 64 0 32 0 0-64-32 0-64 0z"/></svg>

<svg xmlns="http://www.w3.org/2000/svg" viewBox="0 0 512 512"><!--! Font Awesome Pro 6.4.2 by @fontawesome - https://fontawesome.com License - https://fontawesome.com/license (Commercial License) Copyright 2023 Fonticons, Inc. --><path d="M112 256V384l128 96V256L352 128V64H0v64L112 256zM352 384H320v64h32H480h32V384H480 352zM320 224v64h32H480h32V224H480 352 320zM416 64H384v64h32 64 32V64H480 416z"/></svg>
